X:27
T:Fisher's Hornpipe
R:Hornpipe
O:F
M:4/4
L:1/8
Q:120
K:D
dAFA GBAG|FDFD GBAG|FDFA GFEG|(3FED) FD E2 (3ABc)|
dAFA GBAG|FDFD GBAG|FAdf gece|1d2 dc d2 (3ABc):|2d2 dc d2 cd||:ecAc efge
|fdAd fdaf|edcd efgf|(3efe) (3dcB) A3 A|BGDG BGdB|AFDF ADFA|(3Bcd) cB AG
FE|1(3DED) cE D2 cd:|2(3DED) cE D2 (3ABc)|
